src/main/resources/img/file/SQLConsoleFile_dark.svg

<svg width="16" height="16" version="1.1" viewBox="0 0 16 16"  xmlns="http://www.w3.org/2000/svg"><rect y="1" width="16" height="3" fill="#73a9d8" fill-rule="evenodd" stroke-width=".92582"/><path d="m2 4.8h3v5.2h-3z" fill="#999" stroke-width=".24175"/><path d="m3.8 7.5331-1.8 1.8669 0.6 0.6223 2.4-2.4892-2.4-2.4892-0.6 0.6223zm-2.8-3.5331h14v10h-14z" fill="#f2f2f2" stroke-width="1.0184"/><path d="m0 4-9.237e-8 11h16v-11h-1v10h-14v-10z" fill="#999"/></svg>

<svg width="16" height="16" xmlns="http://www.w3.org/2000/svg"><path fill="#73a9d8" fill-rule="evenodd" d="M0 1h16v3H0z"/><path d="M2 4.8h3V10H2z" fill="#999"/><path d="M3.8 7.533 2 9.4l.6.622L5 7.533l-2.4-2.49-.6.623zM1 4h14v10H1z" fill="#f2f2f2"/><path d="M0 4v11h16V4h-1v10H1V4z" fill="#999"/></svg>
